X:29
T:Kasatsjok
O:russia
C:Intro  5x(ABC)  AB  Coda
M:2/4
L:1/8
Q:1/4=132
K:D
V:1
"D" A2 d2 |A3 A|"G" B AG F|"A" E2 z2
|:"D" FA "A" EA |"D" F/=F/F/G/ "A" AG |"D" FA "A" EA/G/ |"D" F"A" E "D" D2 :| |:
"D" Ad "G" BA/G/ |"D" F/=F/F/A/ "A" E/_E/F/A/ |"D" Ad "G" BA/G/ |"A" F/G/F/E/ "D" D2 :|
K:G
"G" GB "D" A/B/c/A/ |"G" Bd "D" d/c/B/A/ |"G" GB "D" A/B/c/A/ |"G" Bd "D" d/c/B/A/ |
"G" GB "D" A/B/c/A/ |"G" Bd "D" d/c/B/A/ |"G" GB "D" A/B/c/A/ |"G" B"D" A "G" G2 |]
"G" [BG D]z3 |"Gm6" [_BG E]z3 |"D" [AF D][AFHD]z2 |]
